X:1
T:Keep Close to Jesus
T:Keep Close to Jesus
T:John Lane
T:John Lane, 1892
T:Public Domain Courtesy of the Cyber Hymnal™
T:Public Domain Courtesy of the Cyber Hymnal™
C:John Lane
Z:Public Domain
Z:Courtesy of the Cyber Hymnal™
%%score ( 1 2 ) ( 3 4 )
L:1/8
Q:1/4=100
M:4/4
K:G
V:1 treble 
V:2 treble 
V:3 bass 
V:4 bass 
V:1
 [B,D][B,G] | ([DB]2 [DB]>)[CA] ([B,G]2 [B,G])[DF] | ([CE][CE]) ([CG][CG]) [B,D]4 | %3
w: 1.~When you|start~for * the land * of|heaven- * ly * rest,|
w: 2.~Ne- ver|mind * the storms * of|trials * as~you * go,|
w: 3.~To be|safe~from * the darts~of * the|e- * vil * one,|
w: 4.~We shall|reach * our home * in|Heaven * by~and * by,|
 [DG]2 [DG]>[DG] [DG][DG][DF][DG] | A6 ([B,D][B,G]) | [DB]2 ([DB]>[CA]) ([B,G]2 [B,G])[DF] | %6
w: Keep close to Je- sus all the|way; For *|He~is the~guide, * and * He|
w: Keep close to Je- sus all the|way; ’Tis~a *|comfort and * joy * His|
w: Keep close to Je- sus all the|way; Take~the *|shield of * faith~till * the|
w: Keep close to Je- sus all the|way; Where~to *|those we * love * we’ll|
 ([CE][CE]) ([CG][CG]) [B,D]4 | [DB]2 [DB]>[DG] [FA][FA] [FB]>[DA] | [DG]6 z2 || %9
w: knows~the * way * best,|Keep close to Je- sus all the|way.|
w: fa- * vor~to * know,|Keep close to Je- sus all the|way.|
w: vic- * tory~is * won,|Keep close to Je- sus all the|way.|
w: never * say~good- * bye,|Keep close to Je- sus all the|way.|
"^Refrain" [Gd]2 [Gd]>[Gd] [Gd] [GB]3 | [Ge]2 [Ge]>[Ge] [Ge] [Gd]3 | %11
w: ||
w: Keep close to Je- sus,|keep close to Je- sus,|
w: ||
w: ||
 [Gd]2 [Gd]>[Gd] [Gd][DB][DA][^CG] | A6 (DG) | [DB] [DB]2 [DA] [DG]2 [B,G][DF] | %14
w: |||
w: Keep close to Je- sus all the|way; By *|day or by night ne- ver|
w: |||
w: |||
 [CE]2 [CG][CG] [B,D]4 | [DB]2 [DB]>[DG] [FA][FA] [FB]>[DA] | [DG]6 |] %17
w: |||
w: turn from the right,|Keep close to Je- sus all the|way.|
w: |||
w: |||
V:2
 x2 | x8 | x8 | x8 | (D4 C2) x2 | x8 | x8 | x8 | x8 || x8 | x8 | x8 | (D4 C2) B,2 | x8 | x8 | x8 | %16
 x6 |] %17
V:3
 [G,,G,][G,,G,] | ([G,,G,]2 [G,,G,]>)[G,,D,] ([G,,D,]2 [G,,D,])[B,,G,] | %2
 ([C,G,][C,G,]) ([E,G,][E,G,]) G,4 | [B,,G,]2 [B,,G,]>[B,,G,] [B,,G,][B,,G,][A,,C][G,,B,] | %4
 [D,F,]6 ([G,,G,][G,,G,]) | [G,,G,]2 [G,,-G,]>[G,,D,] ([G,,D,]2 [G,,D,])[B,,G,] | %6
 ([C,G,][C,G,]) ([E,G,][E,G,]) G,4 | G,2 G,>[G,B,] [D,C][D,C] [D,D]>[D,C] | [G,B,]6 z2 || %9
 [G,B,]2 [G,B,]>[G,B,] [G,B,] [G,D]3 | [C,C]2 [C,C]>[E,C] [G,C] [G,B,]3 | %11
 [G,B,]2 [G,B,]>[G,B,] [G,B,]G,[F,A,][E,A,] | [D,F,]6 G,2 | G, G,2 [G,C] [G,B,]2 [G,,G,][B,,G,] | %14
 [C,G,]2 [E,G,][E,G,] G,4 | G,2 G,>[G,B,] [D,C][D,C] [D,D]>[D,C] | [G,,G,B,]6 |] %17
V:4
 x2 | x8 | x4 G,4 | x8 | x8 | x8 | x4 G,4 | G,2 G,3/2 x9/2 | x8 || x8 | x8 | x5 G, x2 | x6 G,2 | %13
 G, G,2 x5 | x4 G,4 | G,2 G,3/2 x9/2 | x6 |] %17

